media/ico/ico_wifidisconnected.svg

<svg width="96" height="96" viewBox="0 0 96 96" fill="none" xmlns="http://www.w3.org/2000/svg">
<path d="M48 20C31.432 20 16.4303 26.7143 5.57031 37.5703L13.3438 45.3438C22.5557 37.0798 34.68 32 48 32C61.32 32 73.4482 37.0758 82.6562 45.3438L90.4219 37.5781C79.5659 26.7181 64.568 20 48 20ZM48 40C36.884 40 26.7482 44.1722 18.9922 50.9922L27.4766 59.4766C33.0406 54.8166 40.196 52 48 52C55.804 52 62.9634 54.8126 68.5234 59.4766L77 51C69.248 44.176 59.116 40 48 40ZM48 60C42.4 60 37.2599 61.9479 33.1719 65.1719L48 80L62.8281 65.1719C58.7401 61.9479 53.6 60 48 60ZM71.5156 65.8594L65.8594 71.5156L74.3438 80L65.8594 88.4844L71.5156 94.1406L80 85.6562L88.4844 94.1406L94.1406 88.4844L85.6562 80L94.1406 71.5156L88.4844 65.8594L80 74.3438L71.5156 65.8594Z" fill="#4F4AFF"/>
</svg>

<?xml version="1.0" encoding="utf-8"?>
<!-- Generator: Adobe Illustrator 28.0.0, SVG Export Plug-In . SVG Version: 6.00 Build 0)  -->
<svg version="1.1" id="Layer_1" xmlns="http://www.w3.org/2000/svg" xmlns:xlink="http://www.w3.org/1999/xlink" x="0px" y="0px"
	 viewBox="0 0 96 96" style="enable-background:new 0 0 96 96;" xml:space="preserve">
<style type="text/css">
	.st0{fill:#B3B3B3;}
</style>
<path class="st0" d="M48,20c-16.6,0-31.6,6.7-42.4,17.6l7.8,7.8C22.6,37.1,34.7,32,48,32s25.4,5.1,34.7,13.3l7.8-7.8
	C79.6,26.7,64.6,20,48,20z M48,40c-11.1,0-21.3,4.2-29,11l8.5,8.5C33,54.8,40.2,52,48,52s15,2.8,20.5,7.5L77,51
	C69.2,44.2,59.1,40,48,40z M48,60c-5.6,0-10.7,1.9-14.8,5.2L48,80l14.8-14.8C58.7,61.9,53.6,60,48,60z M71.5,65.9l-5.7,5.7l8.5,8.5
	l-8.5,8.5l5.7,5.7l8.5-8.5l8.5,8.5l5.7-5.7L85.7,80l8.5-8.5l-5.7-5.7L80,74.3L71.5,65.9z"/>
</svg>
